!!!COM: Bach, Johann Sebastian
!!!OTL: 46. Vom Himmel hoch, da komm' ich her
!!!ONM: No. 46
!!!OCL: Erk
!!!SCA: BWV 248.9
!!!YOE: Riemenschneider, Albert
!!!OPR: 371 Harmonized Chorales and 69 Chorale Melodies with Figured Bass
!!!OPT: Bach Chorale Harmonizations
!!!ONB: From the end of the "Christmas Oratorio"
**harm	**root	**kern	**kern	**kern	**kern
!	!	!bass	!tenor	!alto	!sprno
*Iorgan	*Iorgan	*Iorgan	*Iorgan	*Iorgan	*Iorgan
*k[f#c#g#d#a#e#]	*k[f#c#g#d#a#e#]	*k[f#c#g#d#a#e#]	*k[f#c#g#d#a#e#]	*k[f#c#g#d#a#e#]	*k[f#c#g#d#a#e#]
*F#:	*F#:	*F#:	*F#:	*F#:	*F#:
*met(c)	*met(c)	*met(c)	*met(c)	*met(c)	*met(c)
*M4/4	*M4/4	*M4/4	*M4/4	*M4/4	*M4/4
*MM60	*MM60	*MM60	*MM60	*MM60	*MM60
I	4DD	4F#	4a#	4cc#	4ff#
=1	=1	=1	=1	=1	=1
V	4AA	4.c#	4g#	8cc#	4ee#
.	.	.	.	8b#	.
vi7d	4BB	.	4f#	4a#	4dd#
.	.	8B#	.	.	.
V	4AA	8c#	4e#	4g#	4ee#
.	.	8B	.	.	.
Ib	4DD	4A#	8f#	8a#	4cc#
.	.	.	8e#	8g#	.
=2	=2	=2	=2	=2	=2
IV	4GG	8B	8d#	4f#	4dd#
.	.	8A#	8c#	.	.
viib	4CC#	4G#	4B	4g#	4ee#
I;	4DD;	4F#;	4c#;	4a#;	4ff#;
I	4DD	8F#	4c#	8a#	4ff#
.	.	8G#	.	8b	.
=3	=3	=3	=3	=3	=3
Ib	4DD	4A#	4f#	8cc#	4ff#
.	.	.	.	8b	.
Ib	4DD	8A#	4f#	4a#	4cc#
.	.	8B	.	.	.
V	4AA	4c#	4e#	4g#	4cc#
V7c/IV	8DD	8c#	8e	4f#	8a#
IV	8GG	8B	8d#	.	8b
=4	=4	=4	=4	=4	=4
Ib	4DD	8A#	4c#	4f#	4cc#
.	.	8G#	.	.	.
V7b	4AA	8F#	4c#	4g#	4b
.	.	8E#y	.	.	.
I;	4DD;	4F#;	4c#;	4f#;	4a#;
I	4DD	4F#	4c#	8f#	4a#
.	.	.	.	8g#	.
=5	=5	=5	=5	=5	=5
!!linebreak: 2
V7b/ii	4BB	4F##	4c#	4a#	4dd#
II	4EE	8G#	4B#	4g#	4dd#
.	.	8F#	.	.	.
Vb	8AA	8E#	8c#	8g#	8cc#
viib/V	8GG#	8D#	8f#	8b#	8dd#
V	4AA	4C#	8e#	4cc#	4ee#
.	.	.	8d#	.	.
=6	=6	=6	=6	=6	=6
Ib	8DD	8A#	8c#	4.cc#	8ff#
Vb	8AA	8G#	8e#	.	8ee#
vii7b	8CC#	8F#	8a#	.	4dd#
V/V	8EE	8G#	8g#	8b#	.
V;	4AA;	4C#;	4e#;	4g#;	4cc#;
vi	8BB	8d#	8f#	8a#	4ff#
V7/V	8EE	8G#	[8d#	8g#	.
=7	=7	=7	=7	=7	=7
V	8AA	4c#	8d#]	8g#	4ee#
iiib	8FF#	.	8c#	[8a#	.
vi7b	8BB	8F#	8c#	8a#]	4dd#
iib	8EE	[8B	8B	8g#	.
V7d	8AA	8B]	4c#	8e#	4cc#
Ib	8DD	8A#	.	8f#	.
IV	8GG	8B	8B	8d#	8dd#
iii	8FF#	8c#	8A#	8e#	8cc#
=8	=8	=8	=8	=8	=8
IVb	4GG	8d#	4F#	4.f#	8b
.	.	8B	.	.	8a#
V	8AA	8c#	8c#	.	4g#
V7	8AA	8C#	8B	8e#	.
I;	4DD;	4F#;	4A#;	4c#;	4f#;
==	==	==	==	==	==
*-	*-	*-	*-	*-	*-
!!!CDT: 1685/3//-1750/7/28
!!!OCY: Deutschland
!!!AGN: chorale
!!!AST: Baroque
!!!AIN: vox
!!!YOY: 1941
!!!PPP: New York; London
!!!PPR: G. Schirmer
!!!ENC: David Huron
!!!EED: David Huron
!!!YEN: United States of America
!!!YER: 1992
!!!YEC: Copyright 1992 David Huron
!!!YEM: Rights to all derivative electronic formats reserved.
!!!YER: March 20, 1996
!!!AMT: simple quadruple
!!!EEV: 1.1
!!chor2scor: -l 2 -s 0.6 -o %b.pmx
